X: 5519
T: Burn The Stubble
R: jig
M: 6/8
K: Dmixolydian
|:cAA AGA|cAA A2B|cAA [cA][AG]A|FDA D2B|
cAA AGA|cAA A2e|fed ge^c|1 d3 dAB:|2 d3 d2f||
|:~g3 gab|agf efg|fd^c ded|cAA A2f|
~g3 gab|agf e[af]g|fed ge^c|1 d3 d2f:|2 d3 d2B||

